img/icons/mime/large/fig.svg

<svg height="140.9" width="125.3" xmlns="http://www.w3.org/2000/svg" xmlns:xlink="http://www.w3.org/1999/xlink"><linearGradient id="a" gradientTransform="matrix(.939922 0 0 .896911 -12.081733 -3.352424)" gradientUnits="userSpaceOnUse" x1="24" x2="73" y1="16.4" y2="73.4"><stop offset="0" stop-color="#fff"/><stop offset="1" stop-color="#fff" stop-opacity="0"/></linearGradient><linearGradient id="b" gradientTransform="matrix(1.222575 0 0 .738788 -10.653167 -7.742593)" gradientUnits="userSpaceOnUse" x1="12.2" x2="107.8" y1="84" y2="84"><stop offset="0" stop-color="#46a046"/><stop offset=".4" stop-color="#df421e"/><stop offset=".7" stop-color="#ada7c8"/><stop offset="1" stop-color="#eed680"/></linearGradient><g stroke="#000"><rect fill="none" height="133.4" rx="22.9" stroke-linejoin="round" stroke-opacity=".5" stroke-width="7.5" width="117.8" x="3.8" y="3.8"/><rect fill="#df421e" height="133.4" rx="22.9" stroke-width="3.8" width="117.8" x="3.6" y="3.7"/><rect fill="url(#b)" height="67.2" rx="1.3" stroke-width="3.3" width="113.7" x="5.9" y="20.8"/></g><path d="m100.3 132.6h-75.7c-11.6 0-17.3-5.7-17.3-17.4 0 0 27.6-66.5 110.4-76.6v76.6c0 11.7-5.7 17.4-17.4 17.4z" fill="#fff" fill-opacity=".3"/><path d="m24.6 7.3h75.7c11.7 0 17.4 5.7 17.4 17.4 0 0-79.3.9-110.4 91.3v-91.3c0-10.3 7-17.4 17.3-17.4z" fill="url(#a)"/><path d="m80.7 126.7c-4.2 0-7.5-1.4-9.7-4-2.3-2.7-3.4-6.6-3.4-11.6 0-5.1 1.1-8.9 3.4-11.5 2.2-2.7 5.4-4 9.7-4h16.7v5.3h-14.7c-2.6 0-4.5.9-5.8 2.6s-1.9 4.2-1.9 7.6.6 6 1.8 7.7 3.2 2.6 5.9 2.6h8.1v-7.7h-8.8v-5.1h15.4v18.1zm-17.8 0h-6.7v-31.1h6.7zm-9.9-25.8h-10c-1.5 0-2.8.2-3.7.5-.5.2-.9.3-1.2.5-.4.2-.7.5-1 .8-.9.8-1.5 1.8-1.9 3l-.3.9-.1 1.1v.9h18.2v5.1h-18.2v13h-6.7v-15.6c0-1.3.1-2.5.1-3.5.1-1.1.3-2 .4-2.8.6-2.5 1.8-4.6 3.6-6.2 1.1-1.1 2.4-1.8 4-2.3s3.7-.7 6.1-.7h10.7z"/><path d="m80 126c-4.2 0-7.4-1.3-9.7-4s-3.4-6.5-3.4-11.6c0-5 1.1-8.9 3.4-11.5 2.2-2.7 5.5-4 9.7-4h16.8v5.3h-14.8c-2.6 0-4.5.9-5.8 2.6-1.2 1.7-1.9 4.3-1.9 7.6 0 3.5.6 6 1.8 7.7s3.2 2.6 5.9 2.6h8.1v-7.7h-8.7v-5.1h15.4v18.1zm-17.8 0h-6.7v-31.1h6.7zm-9.9-25.8h-10c-1.5 0-2.8.2-3.7.6-.4.1-.8.3-1.2.4-.3.2-.7.5-1 .8-.9.8-1.5 1.8-1.9 3l-.3 1v1 .9h18.1v5.1h-18.1v13h-6.8v-15.6c0-1.3.1-2.5.2-3.5 0-1.1.2-2 .4-2.7.5-2.6 1.7-4.7 3.5-6.3 1.1-1.1 2.5-1.8 4.1-2.3s3.6-.7 6-.7h10.7z" fill="#fff"/></svg>

<svg xmlns:svg="http://www.w3.org/2000/svg" xmlns="http://www.w3.org/2000/svg" xmlns:xlink="http://www.w3.org/1999/xlink" height="140.9" width="125.3" id="svg1" version="1">
<style>
.s0{
  stop-color:#46a046;
  stop-opacity:1;
}
.s1{
  stop-color:#df421e;
  stop-opacity:1;
}
.s2{
  stop-color:#ada7c8;
  stop-opacity:1;
}
.s3{
  stop-color:#eed680;
  stop-opacity:1;
}
.s4{
  stop-color:#00ff00;
  stop-opacity:1;
}
.s5{
  stop-color:#ff0000;
  stop-opacity:1;
}
.s6{
  stop-color:#7f8cff;
  stop-opacity:1;
}
.s7{
  stop-color:#ffff00;
  stop-opacity:1;
}

</style>  <metadata id="metadata15"/>
  <defs id="defs3">
    <linearGradient id="linearGradient3587">
      <stop offset="0" id="stop3589" style="stop-color:#efe0cd;stop-opacity:0.6"/>
      <stop offset="1" id="stop3591" style="stop-color:#cececd;stop-opacity:0.2"/>
    </linearGradient>
    <linearGradient id="linearGradient2832">
      <stop id="stop2834" offset="0" style="stop-color:#ffffff;stop-opacity:1"/>
      <stop id="stop2836" offset="1" style="stop-color:#ffffff;stop-opacity:0"/>
    </linearGradient>
    <linearGradient id="linearGradient839">
      <stop id="stop840" offset="0" class="s0"/>
      <stop id="stop841" offset="0.4" class="s1"/>
      <stop id="stop842" offset="0.7" class="s2"/>
      <stop id="stop843" offset="1" class="s3"/>
    </linearGradient>
    <linearGradient y2="84" x2="107.8" y1="84" x1="12.2" id="linearGradient836" xlink:href="#linearGradient839" gradientTransform="scale(1.353569,0.738788)" gradientUnits="userSpaceOnUse"/>
    <linearGradient gradientUnits="userSpaceOnUse" y2="73.4" x2="73" y1="16.4" x1="24" gradientTransform="matrix(0.939922,0,0,0.896911,-12.081733,-3.3524237)" id="linearGradient2830" xlink:href="#linearGradient2832"/>
    <linearGradient xlink:href="#linearGradient1700" id="linearGradient1407" gradientUnits="userSpaceOnUse" gradientTransform="matrix(0.777129,0,0,0.894628,-162.4688,12.76856)" x1="111.3" y1="124.3" x2="107.3" y2="93.7"/>
    <linearGradient xlink:href="#linearGradient1700" id="linearGradient1390" gradientUnits="userSpaceOnUse" gradientTransform="matrix(0.777129,0,0,0.894628,-2.922179,10.43077)" x1="111.3" y1="124.3" x2="107.3" y2="93.7"/>
    <linearGradient id="linearGradient1350">
      <stop id="stop1352" offset="0" class="s0"/>
      <stop id="stop1354" offset="0.4" class="s1"/>
      <stop id="stop1356" offset="0.7" class="s2"/>
      <stop id="stop1358" offset="1" class="s3"/>
    </linearGradient>
    <linearGradient y2="0.5" x2="1" y1="0.5" x1="0" id="linearGradient1360" xlink:href="#linearGradient839"/>
    <linearGradient gradientUnits="userSpaceOnUse" y2="88" x2="128.7" y1="121.7" x1="123.5" gradientTransform="matrix(0.870364,0,0,1.001961,4.612015,4.886798)" id="linearGradient1362" xlink:href="#linearGradient1700"/>
    <linearGradient y2="0.5" x2="1" y1="0.5" x1="0" id="linearGradient1363" xlink:href="#linearGradient839"/>
    <linearGradient id="linearGradient1353">
      <stop id="stop1355" offset="0" class="s0"/>
      <stop id="stop1357" offset="0.4" class="s1"/>
      <stop id="stop1359" offset="0.7" class="s2"/>
      <stop id="stop1361" offset="1" class="s3"/>
    </linearGradient>
    <linearGradient id="linearGradient1700">
      <stop id="stop1701" offset="0" style="stop-color:#000000;stop-opacity:0.7"/>
      <stop id="stop1702" offset="1" style="stop-color:#000000;stop-opacity:0"/>
    </linearGradient>
    <linearGradient xlink:href="#linearGradient839" id="linearGradient1427" x1="0" y1="0.5" x2="1" y2="0.5"/>
    <linearGradient id="linearGradient1417">
      <stop offset="0" id="stop1419" class="s0"/>
      <stop offset="0.4" id="stop1421" class="s1"/>
      <stop offset="0.7" id="stop1423" class="s2"/>
      <stop offset="1" id="stop1425" class="s3"/>
    </linearGradient>
    <linearGradient y2="0.5" x2="1" y1="0.5" x1="0" id="linearGradient1381" xlink:href="#linearGradient839"/>
    <linearGradient id="linearGradient1371">
      <stop id="stop1373" offset="0" class="s0"/>
      <stop id="stop1375" offset="0.4" class="s1"/>
      <stop id="stop1377" offset="0.7" class="s2"/>
      <stop id="stop1379" offset="1" class="s3"/>
    </linearGradient>
    <linearGradient xlink:href="#linearGradient839" id="linearGradient1374" x1="0" y1="0.5" x2="1" y2="0.5"/>
    <linearGradient id="linearGradient1364">
      <stop offset="0" id="stop1366" class="s0"/>
      <stop offset="0.4" id="stop1368" class="s1"/>
      <stop offset="0.7" id="stop1370" class="s2"/>
      <stop offset="1" id="stop1372" class="s3"/>
    </linearGradient>
    <linearGradient xlink:href="#linearGradient839" id="linearGradient1389" x1="0" y1="0.5" x2="1" y2="0.5"/>
    <linearGradient id="linearGradient833">
      <stop offset="0" id="stop834" class="s4"/>
      <stop offset="0.3" id="stop837" class="s5"/>
      <stop offset="0.8" id="stop838" class="s6"/>
      <stop offset="1" id="stop835" class="s7"/>
    </linearGradient>
    <linearGradient id="linearGradient1373">
      <stop offset="0" id="stop1376" class="s0"/>
      <stop offset="0.4" id="stop1378" class="s1"/>
      <stop offset="0.7" id="stop1380" class="s2"/>
      <stop offset="1" id="stop1382" class="s3"/>
    </linearGradient>
    <linearGradient xlink:href="#linearGradient839" id="linearGradient1401" gradientUnits="userSpaceOnUse" gradientTransform="matrix(1.222575,0,0,0.738788,-10.653167,-7.7425927)" x1="12.2" y1="84" x2="107.8" y2="84"/>
    <linearGradient xlink:href="#linearGradient839" id="linearGradient2974" x1="0" y1="0.5" x2="1" y2="0.5"/>
    <linearGradient id="linearGradient2964">
      <stop offset="0" id="stop2966" class="s4"/>
      <stop offset="0.3" id="stop2968" class="s5"/>
      <stop offset="0.8" id="stop2970" class="s6"/>
      <stop offset="1" id="stop2972" class="s7"/>
    </linearGradient>
    <linearGradient id="linearGradient2954">
      <stop offset="0" id="stop2956" class="s0"/>
      <stop offset="0.4" id="stop2958" class="s1"/>
      <stop offset="0.7" id="stop2960" class="s2"/>
      <stop offset="1" id="stop2962" class="s3"/>
    </linearGradient>
    <linearGradient xlink:href="#linearGradient839" id="linearGradient2987" gradientUnits="userSpaceOnUse" gradientTransform="matrix(1.353569,0,0,0.738788,-182.1667,-25.6819)" x1="12.2" y1="84" x2="107.8" y2="84"/>
    <linearGradient y2="0.5" x2="1" y1="0.5" x1="0" id="linearGradient1418" xlink:href="#linearGradient839"/>
    <linearGradient id="linearGradient1408">
      <stop id="stop1410" offset="0" class="s4"/>
      <stop id="stop1412" offset="0.3" class="s5"/>
      <stop id="stop1414" offset="0.8" class="s6"/>
      <stop id="stop1416" offset="1" class="s7"/>
    </linearGradient>
    <linearGradient id="linearGradient1397">
      <stop id="stop1399" offset="0" class="s0"/>
      <stop id="stop1401" offset="0.4" class="s1"/>
      <stop id="stop1403" offset="0.7" class="s2"/>
      <stop id="stop1405" offset="1" class="s3"/>
    </linearGradient>
    <linearGradient y2="84" x2="107.8" y1="84" x1="12.2" gradientTransform="matrix(1.353569,0,0,0.738788,-194.7091,-13.83491)" gradientUnits="userSpaceOnUse" id="linearGradient1431" xlink:href="#linearGradient839"/>
    <linearGradient xlink:href="#linearGradient839" id="linearGradient1430" x1="0" y1="0.5" x2="1" y2="0.5"/>
    <linearGradient id="linearGradient1419">
      <stop offset="0" id="stop1422" class="s4"/>
      <stop offset="0.3" id="stop1424" class="s5"/>
      <stop offset="0.8" id="stop1426" class="s6"/>
      <stop offset="1" id="stop1428" class="s7"/>
    </linearGradient>
    <linearGradient id="linearGradient1409">
      <stop offset="0" id="stop1411" class="s0"/>
      <stop offset="0.4" id="stop1413" class="s1"/>
      <stop offset="0.7" id="stop1415" class="s2"/>
      <stop offset="1" id="stop1417" class="s3"/>
    </linearGradient>
    <linearGradient xlink:href="#linearGradient839" id="linearGradient2256" x1="0" y1="0.5" x2="1" y2="0.5"/>
    <linearGradient id="linearGradient2246">
      <stop offset="0" id="stop2248" class="s4"/>
      <stop offset="0.3" id="stop2250" class="s5"/>
      <stop offset="0.8" id="stop2252" class="s6"/>
      <stop offset="1" id="stop2254" class="s7"/>
    </linearGradient>
    <linearGradient id="linearGradient2236">
      <stop offset="0" id="stop2238" class="s0"/>
      <stop offset="0.4" id="stop2240" class="s1"/>
      <stop offset="0.7" id="stop2242" class="s2"/>
      <stop offset="1" id="stop2244" class="s3"/>
    </linearGradient>
    <linearGradient xlink:href="#linearGradient839" id="linearGradient2269" gradientUnits="userSpaceOnUse" gradientTransform="matrix(1.353569,0,0,0.738788,-202.1667,-3.665422)" x1="12.2" y1="84" x2="107.8" y2="84"/>
    <linearGradient y2="0.5" x2="1" y1="0.5" x1="0" id="linearGradient1452" xlink:href="#linearGradient839"/>
    <linearGradient id="linearGradient1442">
      <stop id="stop1444" offset="0" class="s4"/>
      <stop id="stop1446" offset="0.3" class="s5"/>
      <stop id="stop1448" offset="0.8" class="s6"/>
      <stop id="stop1450" offset="1" class="s7"/>
    </linearGradient>
    <linearGradient id="linearGradient1432">
      <stop id="stop1434" offset="0" class="s0"/>
      <stop id="stop1436" offset="0.4" class="s1"/>
      <stop id="stop1438" offset="0.7" class="s2"/>
      <stop id="stop1440" offset="1" class="s3"/>
    </linearGradient>
    <linearGradient y2="0.5" x2="1" y1="0.5" x1="0" id="linearGradient2281" xlink:href="#linearGradient839"/>
    <linearGradient id="linearGradient2271">
      <stop id="stop2273" offset="0" class="s4"/>
      <stop id="stop2275" offset="0.3" class="s5"/>
      <stop id="stop2277" offset="0.8" class="s6"/>
      <stop id="stop2279" offset="1" class="s7"/>
    </linearGradient>
    <linearGradient id="linearGradient2261">
      <stop id="stop2263" offset="0" class="s0"/>
      <stop id="stop2265" offset="0.4" class="s1"/>
      <stop id="stop2267" offset="0.7" class="s2"/>
      <stop id="stop2269" offset="1" class="s3"/>
    </linearGradient>
    <linearGradient y2="84" x2="107.8" y1="84" x1="12.2" gradientTransform="matrix(1.353569,0,0,0.738788,-163.5227,-7.733217)" gradientUnits="userSpaceOnUse" id="linearGradient2294" xlink:href="#linearGradient839"/>
    <linearGradient xlink:href="#linearGradient839" id="linearGradient1475" x1="0" y1="0.5" x2="1" y2="0.5"/>
    <linearGradient id="linearGradient1465">
      <stop offset="0" id="stop1467" class="s4"/>
      <stop offset="0.3" id="stop1469" class="s5"/>
      <stop offset="0.8" id="stop1471" class="s6"/>
      <stop offset="1" id="stop1473" class="s7"/>
    </linearGradient>
    <linearGradient id="linearGradient1455">
      <stop offset="0" id="stop1457" class="s0"/>
      <stop offset="0.4" id="stop1459" class="s1"/>
      <stop offset="0.7" id="stop1461" class="s2"/>
      <stop offset="1" id="stop1463" class="s3"/>
    </linearGradient>
    <linearGradient xlink:href="#linearGradient839" id="linearGradient2300" x1="0" y1="0.5" x2="1" y2="0.5"/>
    <linearGradient id="linearGradient2290">
      <stop offset="0" id="stop2292" class="s4"/>
      <stop offset="0.3" id="stop2294" class="s5"/>
      <stop offset="0.8" id="stop2296" class="s6"/>
      <stop offset="1" id="stop2298" class="s7"/>
    </linearGradient>
    <linearGradient id="linearGradient2280">
      <stop offset="0" id="stop2282" class="s0"/>
      <stop offset="0.4" id="stop2284" class="s1"/>
      <stop offset="0.7" id="stop2286" class="s2"/>
      <stop offset="1" id="stop2288" class="s3"/>
    </linearGradient>
    <linearGradient xlink:href="#linearGradient839" id="linearGradient2313" gradientUnits="userSpaceOnUse" gradientTransform="matrix(1.353569,0,0,0.738788,-186.9125,-34.85186)" x1="12.2" y1="84" x2="107.8" y2="84"/>
    <linearGradient y2="0.5" x2="1" y1="0.5" x1="0" id="linearGradient1498" xlink:href="#linearGradient839"/>
    <linearGradient id="linearGradient1488">
      <stop id="stop1490" offset="0" class="s4"/>
      <stop id="stop1492" offset="0.3" class="s5"/>
      <stop id="stop1494" offset="0.8" class="s6"/>
      <stop id="stop1496" offset="1" class="s7"/>
    </linearGradient>
    <linearGradient id="linearGradient1478">
      <stop id="stop1480" offset="0" class="s0"/>
      <stop id="stop1482" offset="0.4" class="s1"/>
      <stop id="stop1484" offset="0.7" class="s2"/>
      <stop id="stop1486" offset="1" class="s3"/>
    </linearGradient>
    <linearGradient y2="0.5" x2="1" y1="0.5" x1="0" id="linearGradient2325" xlink:href="#linearGradient839"/>
    <linearGradient id="linearGradient2315">
      <stop id="stop2317" offset="0" class="s4"/>
      <stop id="stop2319" offset="0.3" class="s5"/>
      <stop id="stop2321" offset="0.8" class="s6"/>
      <stop id="stop2323" offset="1" class="s7"/>
    </linearGradient>
    <linearGradient id="linearGradient2305">
      <stop id="stop2307" offset="0" class="s0"/>
      <stop id="stop2309" offset="0.4" class="s1"/>
      <stop id="stop2311" offset="0.7" class="s2"/>
      <stop id="stop2313" offset="1" class="s3"/>
    </linearGradient>
    <linearGradient y2="84" x2="107.8" y1="84" x1="12.2" gradientTransform="matrix(1.353569,0,0,0.738788,-166.5735,-17.22474)" gradientUnits="userSpaceOnUse" id="linearGradient2338" xlink:href="#linearGradient839"/>
    <linearGradient y2="0.5" x2="1" y1="0.5" x1="0" id="linearGradient3150" xlink:href="#linearGradient839"/>
    <linearGradient id="linearGradient3140">
      <stop id="stop3142" offset="0" class="s4"/>
      <stop id="stop3144" offset="0.3" class="s5"/>
      <stop id="stop3146" offset="0.8" class="s6"/>
      <stop id="stop3148" offset="1" class="s7"/>
    </linearGradient>
    <linearGradient id="linearGradient3130">
      <stop id="stop3132" offset="0" class="s0"/>
      <stop id="stop3134" offset="0.4" class="s1"/>
      <stop id="stop3136" offset="0.7" class="s2"/>
      <stop id="stop3138" offset="1" class="s3"/>
    </linearGradient>
    <linearGradient y2="84" x2="107.8" y1="84" x1="12.2" gradientTransform="matrix(1.353569,0,0,0.738788,-183.5227,-0.27559)" gradientUnits="userSpaceOnUse" id="linearGradient3163" xlink:href="#linearGradient839"/>
    <linearGradient xlink:href="#linearGradient839" id="linearGradient1533" x1="0" y1="0.5" x2="1" y2="0.5"/>
    <linearGradient id="linearGradient1523">
      <stop offset="0" id="stop1525" class="s4"/>
      <stop offset="0.3" id="stop1527" class="s5"/>
      <stop offset="0.8" id="stop1529" class="s6"/>
      <stop offset="1" id="stop1531" class="s7"/>
    </linearGradient>
    <linearGradient id="linearGradient1513">
      <stop offset="0" id="stop1515" class="s0"/>
      <stop offset="0.4" id="stop1517" class="s1"/>
      <stop offset="0.7" id="stop1519" class="s2"/>
      <stop offset="1" id="stop1521" class="s3"/>
    </linearGradient>
    <linearGradient xlink:href="#linearGradient839" id="linearGradient2359" x1="0" y1="0.5" x2="1" y2="0.5"/>
    <linearGradient id="linearGradient2349">
      <stop offset="0" id="stop2351" class="s4"/>
      <stop offset="0.3" id="stop2353" class="s5"/>
      <stop offset="0.8" id="stop2355" class="s6"/>
      <stop offset="1" id="stop2357" class="s7"/>
    </linearGradient>
    <linearGradient id="linearGradient2339">
      <stop offset="0" id="stop2341" class="s0"/>
      <stop offset="0.4" id="stop2343" class="s1"/>
      <stop offset="0.7" id="stop2345" class="s2"/>
      <stop offset="1" id="stop2347" class="s3"/>
    </linearGradient>
    <linearGradient xlink:href="#linearGradient839" id="linearGradient3184" x1="0" y1="0.5" x2="1" y2="0.5"/>
    <linearGradient id="linearGradient3174">
      <stop offset="0" id="stop3176" class="s4"/>
      <stop offset="0.3" id="stop3178" class="s5"/>
      <stop offset="0.8" id="stop3180" class="s6"/>
      <stop offset="1" id="stop3182" class="s7"/>
    </linearGradient>
    <linearGradient id="linearGradient3164">
      <stop offset="0" id="stop3166" class="s0"/>
      <stop offset="0.4" id="stop3168" class="s1"/>
      <stop offset="0.7" id="stop3170" class="s2"/>
      <stop offset="1" id="stop3172" class="s3"/>
    </linearGradient>
    <linearGradient xlink:href="#linearGradient839" id="linearGradient4009" x1="0" y1="0.5" x2="1" y2="0.5"/>
    <linearGradient id="linearGradient3999">
      <stop offset="0" id="stop4001" class="s4"/>
      <stop offset="0.3" id="stop4003" class="s5"/>
      <stop offset="0.8" id="stop4005" class="s6"/>
      <stop offset="1" id="stop4007" class="s7"/>
    </linearGradient>
    <linearGradient id="linearGradient3989">
      <stop offset="0" id="stop3991" class="s0"/>
      <stop offset="0.4" id="stop3993" class="s1"/>
      <stop offset="0.7" id="stop3995" class="s2"/>
      <stop offset="1" id="stop3997" class="s3"/>
    </linearGradient>
    <linearGradient xlink:href="#linearGradient839" id="linearGradient4836" x1="0" y1="0.5" x2="1" y2="0.5"/>
    <linearGradient id="linearGradient4826">
      <stop offset="0" id="stop4828" class="s4"/>
      <stop offset="0.3" id="stop4830" class="s5"/>
      <stop offset="0.8" id="stop4832" class="s6"/>
      <stop offset="1" id="stop4834" class="s7"/>
    </linearGradient>
    <linearGradient id="linearGradient4816">
      <stop offset="0" id="stop4818" class="s0"/>
      <stop offset="0.4" id="stop4820" class="s1"/>
      <stop offset="0.7" id="stop4822" class="s2"/>
      <stop offset="1" id="stop4824" class="s3"/>
    </linearGradient>
    <linearGradient xlink:href="#linearGradient839" id="linearGradient5661" x1="0" y1="0.5" x2="1" y2="0.5"/>
    <linearGradient id="linearGradient5651">
      <stop offset="0" id="stop5653" class="s4"/>
      <stop offset="0.3" id="stop5655" class="s5"/>
      <stop offset="0.8" id="stop5657" class="s6"/>
      <stop offset="1" id="stop5659" class="s7"/>
    </linearGradient>
    <linearGradient id="linearGradient5641">
      <stop offset="0" id="stop5643" class="s0"/>
      <stop offset="0.4" id="stop5645" class="s1"/>
      <stop offset="0.7" id="stop5647" class="s2"/>
      <stop offset="1" id="stop5649" class="s3"/>
    </linearGradient>
    <linearGradient xlink:href="#linearGradient839" id="linearGradient5674" gradientUnits="userSpaceOnUse" gradientTransform="matrix(1.353569,0,0,0.738788,-183.8617,-19.25864)" x1="12.2" y1="84" x2="107.8" y2="84"/>
  </defs>
  <rect rx="22.9" ry="22.9" y="3.8" x="3.8" height="133.4" width="117.8" id="rect834" style="fill:none;stroke-linejoin:round;stroke-opacity:0.5;stroke-width:7.5;stroke:#000"/>
  <rect rx="22.9" ry="22.9" y="3.7" x="3.6" height="133.4" width="117.8" id="rect828" style="fill:#df421e;stroke-width:3.8;stroke:#000"/>
  <rect id="rect832" width="113.7" height="67.2" ry="1.3" x="5.9" y="20.8" rx="1.3" style="fill:url(#linearGradient1401);stroke-width:3.3;stroke:#000"/>
  <path id="path2838" d="M100.3 132.6L24.6 132.6C13 132.6 7.3 126.9 7.3 115.2 7.3 115.2 34.9 48.7 117.7 38.6L117.7 115.2C117.7 126.9 112 132.6 100.3 132.6z" style="fill-opacity:0.3;fill:#fff"/>
  <path id="rect2063" d="M24.6 7.3L100.3 7.3C112 7.3 117.7 13 117.7 24.7 117.7 24.7 38.4 25.6 7.3 116L7.3 24.7C7.3 14.4 14.3 7.3 24.6 7.3z" fill="url(#linearGradient2830)"/>
  <path d="M80.7 126.7C76.5 126.7 73.2 125.3 71 122.7 68.7 120 67.6 116.1 67.6 111.1 67.6 106 68.7 102.2 71 99.6 73.2 96.9 76.4 95.6 80.7 95.6L97.4 95.6 97.4 100.9 82.7 100.9C80.1 100.9 78.2 101.8 76.9 103.5 75.6 105.2 75 107.7 75 111.1 75 114.5 75.6 117.1 76.8 118.8 78 120.5 80 121.4 82.7 121.4L90.8 121.4 90.8 113.7 82 113.7 82 108.6 97.4 108.6 97.4 126.7 80.7 126.7zM62.9 126.7L56.2 126.7 56.2 95.6 62.9 95.6 62.9 126.7zM53 100.9L43 100.9C41.5 100.9 40.2 101.1 39.3 101.4 38.8 101.6 38.4 101.7 38.1 101.9 37.7 102.1 37.4 102.4 37.1 102.7 36.2 103.5 35.6 104.5 35.2 105.7L34.9 106.6 34.8 107.7 34.8 108.6 53 108.6 53 113.7 34.8 113.7 34.8 126.7 28.1 126.7 28.1 111.1C28.1 109.8 28.2 108.6 28.2 107.6 28.3 106.5 28.5 105.6 28.6 104.8 29.2 102.3 30.4 100.2 32.2 98.6 33.3 97.5 34.6 96.8 36.2 96.3 37.8 95.8 39.9 95.6 42.3 95.6L53 95.6 53 100.9z" id="path842" style="font-family:Trek;font-size:40;stroke-width:1"/>
  <path d="M80 126C75.8 126 72.6 124.7 70.3 122 68 119.3 66.9 115.5 66.9 110.4 66.9 105.4 68 101.5 70.3 98.9 72.5 96.2 75.8 94.9 80 94.9L96.8 94.9 96.8 100.2 82 100.2C79.4 100.2 77.5 101.1 76.2 102.8 75 104.5 74.3 107.1 74.3 110.4 74.3 113.9 74.9 116.4 76.1 118.1 77.3 119.8 79.3 120.7 82 120.7L90.1 120.7 90.1 113 81.4 113 81.4 107.9 96.8 107.9 96.8 126 80 126zM62.2 126L55.5 126 55.5 94.9 62.2 94.9 62.2 126zM52.3 100.2L42.3 100.2C40.8 100.2 39.5 100.4 38.6 100.8 38.2 100.9 37.8 101.1 37.4 101.2 37.1 101.4 36.7 101.7 36.4 102 35.5 102.8 34.9 103.8 34.5 105L34.2 106 34.2 107 34.2 107.9 52.3 107.9 52.3 113 34.2 113 34.2 126 27.4 126 27.4 110.4C27.4 109.1 27.5 107.9 27.6 106.9 27.6 105.8 27.8 104.9 28 104.2 28.5 101.6 29.7 99.5 31.5 97.9 32.6 96.8 34 96.1 35.6 95.6 37.2 95.1 39.2 94.9 41.6 94.9L52.3 94.9 52.3 100.2z" id="path5678" style="fill:#fff;font-family:Trek;font-size:40;stroke-width:1"/>
</svg>
